X: 4262
T: Caper Fey.    Original Set
%R: air, strathspey, reel
B: Niel Gow & Sons "A Fourth Collection of Strathspey Reels, etc." v.4 p.26 #2
Z: 2022 John Chambers <jc:trillian.mit.edu>
M: C
L: 1/8
Q: "Slow"
K: C
% - - - - - - - - - -
% Voice 1 reformatted for _ _-bar lines, for compactness and proofreading.
V: 1 staves=2
G |\
c2 {cd}e>d Tc2 Gc | {AB}c2 TG>F ECCE | {D}d<d f>e Td2 AB/^c/ | Td2 A>G FDD>E || {C}c2 {cd}e>d Tc2 GA/B/ |
Tc2G>F ECC>E | (DEF).G (AB^c).A | ~d2A>G FDD |][| g/f/ | e>cg>c a>cg>c | e>cg>c {f}e>dce | f>da>d bdaf |
~d>e ~f>g a/g/f/e/ dg/f/ || e>cg>c a>cg>c | ~G>A ~c>d ec cf/g/ | {fg}a>f g>e f>d e>^c | {c}~d2A>G FDD |]
% - - - - - - - - - -
% Voice 2 preserves the staff layout in the book.
V: 2 clef=bass middle=d
z | c2c'2 c2z2 | c2G2 C3z | D2d2 d3A | d2A2 D3G || C2c2 C3z |
c2G2 C2E2 | F3E D2A2 | FGA2 d2D |][| z |[K:C clef=treble]\
[G2E2C2][G2E2C2] [A2F2C2][G2E2C2] | [G2E2C2][G2E2C2] [G4E4C4] |\
[A2F2D2][A2F2D2] [B2G2D2][A2F2D2] |[K:C clef=bass middle=d]
d'^c' d'e' f'2d'z || c2e2 f2e2 | ef ed c2c2 | d2[^c2A2] d2A2 | F>GA2 D2D |]
% - - - - - - - - - -
%%text This Tune may be Played as a Reel.


